common/svg/discord-icon.svg

<svg fill="none" height="20" viewBox="0 0 20 20" width="20" xmlns="http://www.w3.org/2000/svg"><g fill="#000"><path d="m8.19 8.39c-.57 0-1.02.5-1.02 1.11s.46 1.11 1.02 1.11c.57 0 1.02-.5 1.02-1.11.01-.61-.45-1.11-1.02-1.11zm3.65 0c-.57 0-1.02.5-1.02 1.11s.46 1.11 1.02 1.11c.57 0 1.02-.5 1.02-1.11s-.45-1.11-1.02-1.11z"/><path d="m16.7 0h-13.4c-1.13 0-2.05.92-2.05 2.06v13.52c0 1.14.92 2.06 2.05 2.06h11.34l-.53-1.85 1.28 1.19 1.21 1.12 2.15 1.9v-17.94c0-1.14-.92-2.06-2.05-2.06zm-3.86 13.06s-.36-.43-.66-.81c1.31-.37 1.81-1.19 1.81-1.19-.41.27-.8.46-1.15.59-.5.21-.98.35-1.45.43-.96.18-1.84.13-2.59-.01-.57-.11-1.06-.27-1.47-.43-.23-.09-.48-.2-.73-.34-.03-.02-.06-.03-.09-.05-.02-.01-.03-.02-.04-.03-.18-.1-.28-.17-.28-.17s.48.8 1.75 1.18c-.3.38-.67.83-.67.83-2.21-.07-3.05-1.52-3.05-1.52 0-3.22 1.44-5.83 1.44-5.83 1.44-1.08 2.81-1.05 2.81-1.05l.1.12c-1.8.52-2.63 1.31-2.63 1.31s.22-.12.59-.29c1.07-.47 1.92-.6 2.27-.63.06-.01.11-.02.17-.02.61-.08 1.3-.1 2.02-.02.95.11 1.97.39 3.01.96 0 0-.79-.75-2.49-1.27l.14-.16s1.37-.03 2.81 1.05c0 0 1.44 2.61 1.44 5.83 0 0-.85 1.45-3.06 1.52z"/></g></svg>

<svg width="20" height="20" viewBox="0 0 20 20" fill="none" xmlns="http://www.w3.org/2000/svg">
<path d="M8.19 8.39C7.62 8.39 7.17 8.89 7.17 9.5C7.17 10.11 7.63 10.61 8.19 10.61C8.76 10.61 9.21 10.11 9.21 9.5C9.22 8.89 8.76 8.39 8.19 8.39ZM11.84 8.39C11.27 8.39 10.82 8.89 10.82 9.5C10.82 10.11 11.28 10.61 11.84 10.61C12.41 10.61 12.86 10.11 12.86 9.5C12.86 8.89 12.41 8.39 11.84 8.39Z" fill="black"/>
<path d="M16.7 0H3.3C2.17 0 1.25 0.92 1.25 2.06V15.58C1.25 16.72 2.17 17.64 3.3 17.64H14.64L14.11 15.79L15.39 16.98L16.6 18.1L18.75 20V2.06C18.75 0.92 17.83 0 16.7 0ZM12.84 13.06C12.84 13.06 12.48 12.63 12.18 12.25C13.49 11.88 13.99 11.06 13.99 11.06C13.58 11.33 13.19 11.52 12.84 11.65C12.34 11.86 11.86 12 11.39 12.08C10.43 12.26 9.55 12.21 8.8 12.07C8.23 11.96 7.74 11.8 7.33 11.64C7.1 11.55 6.85 11.44 6.6 11.3C6.57 11.28 6.54 11.27 6.51 11.25C6.49 11.24 6.48 11.23 6.47 11.22C6.29 11.12 6.19 11.05 6.19 11.05C6.19 11.05 6.67 11.85 7.94 12.23C7.64 12.61 7.27 13.06 7.27 13.06C5.06 12.99 4.22 11.54 4.22 11.54C4.22 8.32 5.66 5.71 5.66 5.71C7.1 4.63 8.47 4.66 8.47 4.66L8.57 4.78C6.77 5.3 5.94 6.09 5.94 6.09C5.94 6.09 6.16 5.97 6.53 5.8C7.6 5.33 8.45 5.2 8.8 5.17C8.86 5.16 8.91 5.15 8.97 5.15C9.58 5.07 10.27 5.05 10.99 5.13C11.94 5.24 12.96 5.52 14 6.09C14 6.09 13.21 5.34 11.51 4.82L11.65 4.66C11.65 4.66 13.02 4.63 14.46 5.71C14.46 5.71 15.9 8.32 15.9 11.54C15.9 11.54 15.05 12.99 12.84 13.06Z" fill="black"/>
</svg>
